!!!COM: Beethoven
!!!OTL: 24 Variationen uber Venni Amore von V. Righini
!!!Variation: Variation 23 aa
**kern	**harm	**kern	**kern	**kern	**kern
*M3/4	*M3/4	*staff3	*staff4	*staff1	*staff2
*D:	*D:	*clefF4	*clefF4	*clefG2	*clefG2
*tb96	*	*k[f#c#]	*k[f#c#]	*k[f#c#]	*k[f#c#]
*	*	*M2/4	*M2/4	*M2/4	*M2/4
*	*	*D:	*D:	*D:	*D:
=	=	=-	=-	=-	=-
2T	2I	8AL	2D	4ff#	2.r
.	.	8dJ	.	.	.
.	.	8F#L 8A	.	(4f# 4ff#	.
.	.	8dJ	.	.	.
4T	4V7	8AL	4D 4G	4e) 4ee	.
.	.	8c#J	.	.	.
=	=	=412	=412	=412	=412
2T	2I	2.r	8DL 8F# 8A	8dL 8dd	2.r
*	*	*	*clefG2	*	*
.	.	.	(8aJ	[8ddJ	.
.	.	.	8f#L	(16ddLL]	.
.	.	.	.	32cc#L	.
.	.	.	.	32ddJJ	.
.	.	.	8dJ	32eeLL	.
.	.	.	.	32ff#	.
.	.	.	.	32gg	.
.	.	.	.	32aaJJJ	.
4T	4V65/IV	.	8cL)	32bbLLL	.
.	.	.	.	32ccc	.
.	.	.	.	32ccc#	.
.	.	.	.	32dddJJJ)	.
*	*	*	*clefF4	*	*
.	.	.	8F#J 8c 8d	16.r	.
.	.	.	.	32ddd	.
=	=	=413	=413	=413	=413
2.T	2.IV	2.r	8..GL 8..B 8..d	16dd 16ddd	2.r
.	.	.	.	16r	.
.	.	.	.	[8d [8dd	.
.	.	.	32GGJkk 32BB 32D	.	.
.	.	.	4.GG 4.BB 4.D	16d] 16dd]	.
.	.	.	.	16r	.
.	.	.	.	(24a#'LL	.
.	.	.	.	24b'	.
.	.	.	.	24cc#'JJ	.
.	.	.	.	24dd'LL	.
.	.	.	.	24ff#'	.
.	.	.	.	24gg'J	.
.	.	.	8r	24aa#'L	.
.	.	.	.	24bb'	.
.	.	.	.	24ccc#'JJ)	.
=	=	=414	=414	=414	=414
2.T	2.I6	2.r	8..F#L 8..A 8..d	16dd 16ddd	2.r
.	.	.	.	16r	.
.	.	.	.	[8d [8dd	.
.	.	.	32FF#Jkk 32AA 32D	.	.
.	.	.	4.FF# 4.AA 4.D	16d] 16dd]	.
.	.	.	.	16r	.
.	.	.	.	(24g#'LL	.
.	.	.	.	24a'	.
.	.	.	.	24cc#'JJ	.
.	.	.	.	24dd'LL	.
.	.	.	.	24ee#'	.
.	.	.	.	24ff#'J)	.
.	.	.	8r	(32ggLL	.
.	.	.	.	32gg#	.
.	.	.	.	32aa	.
.	.	.	.	32ggJJJ	.
=	=	=415	=415	=415	=415
2.T	2.I64	2.r	16r	16ff#')	8r
.	.	.	(16AAALL [16AA	16r	.
.	.	.	16DD 16AA_ 16D	(16.ff#LL	8.AA 8.C#
.	.	.	16EEJJ 16AA_ 16E	.	.
.	.	.	.	32eeJJk	.
.	.	.	16FF#LL 16AA_ 16F#	16dd)	.
.	.	.	16GG 16AA_ 16G	16ALL	[8.CC#
.	.	.	16FF# 16AA_ 16F#	16d	.
.	.	.	16EEJJ 16AA_ 16E	16c#JJ 16e	.
.	.	.	16DDLL 16AA_ 16D	8d 8f#	8CC#]
.	.	.	16CC# 16AA] 16C#	.	.
.	.	.	16BBB 16BB	(16.ff#LL	(8AA
.	.	.	16AAAJJ) 16AA	.	.
.	.	.	.	32ddJJk)	.
=	=	=416	=416	=416	=416
2.T	2.V7	2.r	16r	8gg	8BB) 8E
.	.	.	(16AAALL [16AA	.	.
.	.	.	16EE 16AA_ 16E	(16.eLL 16.g	[8CC#
.	.	.	16FF#JJ 16AA_ 16F#	.	.
.	.	.	.	32dJJk) 32f#	.
.	.	.	16GGLL 16AA_ 16G	16c# 16e	16CC#]
.	.	.	16FF# 16AA_ 16F#	(16aLL	[8.C#
.	.	.	16EE 16AA_ 16E	16cc# 16ee	.
.	.	.	16DDJJ 16AA_ 16D	16ddJJ) 16ff#	.
.	.	.	16CC#LL 16AA_ 16C#	8ee 8gg	8C#]
.	.	.	16BBB 16AA] 16BB	.	.
.	.	.	16AAA 16AA	(16.ggLL	[8C# 8E
.	.	.	16GGGJJ) 16GG	.	.
.	.	.	.	32eeJJk	.
=	=	=417	=417	=417	=417
8T	8I6	2.r	8FFF#' 8FF#'	32aaLLL)	8C#] 8F#
.	.	.	.	32aa	.
.	.	.	.	32ee#	.
.	.	.	.	32ff#JJJ	.
8T	8V2/ii	.	(8AL 8B 8d#	32r	8r
.	.	.	.	(32ff#LLL	.
.	.	.	.	32ccc	.
.	.	.	.	32bbJJJ)	.
8T	8ii6	.	8G 8B 8e	32r	4r
.	.	.	.	(32bbLLL	.
.	.	.	.	32dd#	.
.	.	.	.	32eeJJJ)	.
8T	8V2	.	8G 8A 8c#	32r	.
.	.	.	.	(32eeLLL	.
.	.	.	.	32bb	.
.	.	.	.	32aaJJJ)	.
4T	4I6	.	8F#J) 8A 8d	32r	4r
.	.	.	.	(32aaLLL	.
.	.	.	.	32eee	.
.	.	.	.	32dddJJ	.
.	.	.	8r	32cccLL	.
.	.	.	.	32bb	.
.	.	.	.	32aa	.
.	.	.	.	32ggJJJ	.
*	*	*clefG2	*	*	*
=	=	=418	=418	=418	=418
2.D	2.V	8r	8r	32ff#LLL	8r
.	.	.	.	32gg	.
.	.	.	.	32gg#	.
.	.	.	.	32aaJJ	.
.	.	(8f#	4A	32bbLL	8F#
.	.	.	.	32aa	.
.	.	.	.	32gg#	.
.	.	.	.	32aaJJJ)	.
.	.	8eL	.	32r	8EL
.	.	.	.	(32aaLLL	.
.	.	.	.	32gg#	.
.	.	.	.	32aaJJ	.
.	.	8dJ)	8A	32bbLL	8AJ
.	.	.	.	32aa	.
.	.	.	.	32gg#	.
.	.	.	.	32aaJJJ)	.
.	.	8c#;	8A;	8aa	8G;
.	.	8r	8AAA;	8r;	8r
=	=	=419	=419	=419	=419
*-	*-	*-	*-	*-	*-
